X: 0582
M: 2/4
L: 1/16
K: C
ed |\
c2GF ECEG | AFAc BGBd | ecfd gedc | Bcde dfed |\
c2GF ECEG | AFAc BGBd | ecfd ecdB | c2c2c2 H:|
|: (3gab |\
c'2g2 eceg | f2dc BGBd | ecfd gedc | B2G2G2 cB |\

